build/assets/images/svg/icons/product/b-wholesale.svg

<svg width="24" height="24" viewBox="0 0 24 24" fill="none" xmlns="http://www.w3.org/2000/svg">
<path d="M4.76411 12.9687C5.30103 12.7998 5.77869 12.6614 6.05189 12.5839C6.21081 12.5388 6.37457 12.5409 6.53243 12.5895C7.26439 12.8151 9.4753 13.5136 10.3464 13.9801L8.8053 14.629L4.76411 12.9687Z" fill="#203686"/>
<path d="M3.79866 13.2875C3.15685 13.5113 2.5482 13.7522 2.19506 13.9637C2.20687 13.9672 2.2186 13.9713 2.23021 13.9762L6.29297 15.6868L7.94527 14.9911L3.79866 13.2875Z" fill="#203686"/>
<path d="M1.834 14.4756C1.73014 15.2073 1.81042 17.4974 1.8557 18.5697C1.87024 18.9142 2.08641 19.2162 2.40654 19.3442L5.9653 20.7677C5.96869 20.7691 5.9721 20.7704 5.97551 20.7717C5.96677 20.7421 5.96209 20.7107 5.96209 20.6782V16.2655L1.97341 14.5861C1.91559 14.5618 1.8683 14.5229 1.834 14.4756Z" fill="#203686"/>
<path d="M6.61043 20.7718C6.61386 20.7704 6.61728 20.7691 6.62069 20.7677L10.1795 19.3442C10.4996 19.2162 10.7157 18.9142 10.7303 18.5698C10.7756 17.4974 10.8559 15.2073 10.752 14.4755C10.7177 14.5229 10.6704 14.5618 10.6126 14.5861L6.62385 16.2655V20.6782C6.62385 20.7107 6.61916 20.7421 6.61043 20.7718Z" fill="#203686"/>
<path d="M16.5297 12.9687C17.0667 12.7998 17.5443 12.6614 17.8175 12.5839C17.9764 12.5388 18.1402 12.5409 18.2981 12.5895C19.03 12.8151 21.2409 13.5136 22.1121 13.9801L20.5709 14.629L16.5297 12.9687Z" fill="#203686"/>
<path d="M15.5643 13.2875C14.9225 13.5113 14.3138 13.7522 13.9607 13.9637C13.9725 13.9672 13.9842 13.9713 13.9958 13.9762L18.0586 15.6868L19.7109 14.9911L15.5643 13.2875Z" fill="#203686"/>
<path d="M13.5996 14.4756C13.4958 15.2073 13.576 17.4974 13.6213 18.5697C13.6359 18.9142 13.852 19.2162 14.1722 19.3442L17.7309 20.7677C17.7343 20.7691 17.7377 20.7704 17.7411 20.7717C17.7324 20.7421 17.7277 20.7107 17.7277 20.6782V16.2655L13.739 14.5861C13.6812 14.5618 13.6339 14.5229 13.5996 14.4756Z" fill="#203686"/>
<path d="M18.3761 20.7718C18.3795 20.7704 18.3829 20.7691 18.3863 20.7677L21.9451 19.3442C22.2652 19.2162 22.4814 18.9142 22.4959 18.5698C22.5412 17.4974 22.6215 15.2073 22.5176 14.4755C22.4833 14.5229 22.436 14.5618 22.3782 14.5861L18.3895 16.2655V20.6782C18.3895 20.7107 18.3848 20.7421 18.3761 20.7718Z" fill="#203686"/>
<path d="M10.6469 3.55468C11.1838 3.38572 11.6615 3.24729 11.9347 3.16983C12.0936 3.12477 12.2574 3.12682 12.4152 3.17548C13.1472 3.40109 15.3581 4.09951 16.2292 4.56608L14.6881 5.21496L10.6469 3.55468Z" fill="#203686"/>
<path d="M9.68147 3.87347C9.03967 4.09726 8.43101 4.33817 8.07787 4.54961C8.08968 4.55309 8.10141 4.55727 8.11302 4.56216L12.1758 6.27275L13.8281 5.57707L9.68147 3.87347Z" fill="#203686"/>
<path d="M7.71681 5.06152C7.61296 5.79328 7.69324 8.08337 7.73851 9.15568C7.75306 9.50016 7.96922 9.80212 8.28935 9.93017L11.8481 11.3537C11.8515 11.355 11.8549 11.3564 11.8583 11.3577C11.8496 11.328 11.8449 11.2966 11.8449 11.2641V6.85146L7.85622 5.17206C7.7984 5.14772 7.75111 5.10886 7.71681 5.06152Z" fill="#203686"/>
<path d="M12.4932 11.3577C12.4967 11.3564 12.5001 11.355 12.5035 11.3537L16.0623 9.93017C16.3824 9.80212 16.5986 9.50016 16.6131 9.15569C16.6584 8.08337 16.7387 5.79319 16.6348 5.06147C16.6005 5.10884 16.5532 5.14771 16.4954 5.17206L12.5067 6.85146V11.2641C12.5067 11.2966 12.502 11.328 12.4932 11.3577Z" fill="#203686"/>
</svg>

<svg width="24" height="24" fill="none" xmlns="http://www.w3.org/2000/svg"><path d="M4.764 12.969a48.68 48.68 0 011.288-.385.84.84 0 01.48.005c.732.226 2.943.925 3.814 1.391l-1.54.649-4.042-1.66zm-.965.318c-.642.224-1.25.465-1.604.677a.335.335 0 01.035.012l4.063 1.71 1.652-.695L3.8 13.287zm-1.965 1.189c-.104.731-.024 3.021.022 4.094.014.344.23.646.55.774l3.56 1.424.01.004a.33.33 0 01-.014-.094v-4.413l-3.989-1.679a.33.33 0 01-.139-.11zm4.776 6.296l.01-.004 3.56-1.424a.874.874 0 00.55-.774c.046-1.073.126-3.363.022-4.095a.329.329 0 01-.14.111l-3.988 1.68v4.412a.331.331 0 01-.014.094zm9.92-7.803a48.768 48.768 0 011.287-.385.84.84 0 01.481.005c.732.226 2.943.925 3.814 1.391l-1.541.649-4.041-1.66zm-.966.318c-.642.224-1.25.465-1.603.677a.334.334 0 01.035.012l4.063 1.71 1.652-.695-4.147-1.704zM13.6 14.476c-.104.731-.024 3.021.021 4.094a.875.875 0 00.551.774l3.559 1.424.01.004a.331.331 0 01-.013-.094v-4.413l-3.989-1.679a.33.33 0 01-.14-.11zm4.776 6.296l.01-.004 3.56-1.424a.874.874 0 00.55-.774c.045-1.073.126-3.363.022-4.095a.329.329 0 01-.14.111l-3.988 1.68v4.412a.332.332 0 01-.014.094zM10.647 3.555a48.31 48.31 0 011.288-.385.839.839 0 01.48.005c.732.226 2.943.925 3.814 1.391l-1.54.649-4.042-1.66zm-.966.318c-.641.224-1.25.465-1.603.677a.333.333 0 01.035.012l4.063 1.71 1.652-.695-4.147-1.704zM7.717 5.062c-.104.731-.024 3.021.022 4.094.014.344.23.646.55.774l3.56 1.424.01.004a.332.332 0 01-.014-.094V6.851L7.856 5.172a.33.33 0 01-.14-.11zm4.776 6.296l.01-.004 3.56-1.424a.874.874 0 00.55-.774c.045-1.073.126-3.363.022-4.095a.33.33 0 01-.14.111l-3.988 1.68v4.412a.329.329 0 01-.014.094z" fill="#203686"/></svg>
